src/pos-icons/pill.svg

<svg height="24" viewBox="0 0 24 24" width="24" xmlns="http://www.w3.org/2000/svg"><path d="m4.22 11.29 7.07-7.07c2.35-2.34 6.14-2.34 8.49 0 2.34 2.34 2.34 6.14 0 8.49l-7.07 7.07c-2.35 2.34-6.15 2.34-8.49 0-2.34-2.35-2.34-6.14 0-8.49m1.42 1.42c-1.05 1.04-1.4 2.53-1.04 3.86l5.99-5.98 4.24 4.24 3.53-3.54c1.57-1.56 1.57-4.09 0-5.65-1.56-1.57-4.09-1.57-5.65 0z"/></svg>

<?xml version="1.0" encoding="UTF-8"?><!DOCTYPE svg PUBLIC "-//W3C//DTD SVG 1.1//EN" "http://www.w3.org/Graphics/SVG/1.1/DTD/svg11.dtd"><svg xmlns="http://www.w3.org/2000/svg" xmlns:xlink="http://www.w3.org/1999/xlink" version="1.1" id="mdi-pill" width="24" height="24" viewBox="0 0 24 24"><path d="M4.22,11.29L11.29,4.22C13.64,1.88 17.43,1.88 19.78,4.22C22.12,6.56 22.12,10.36 19.78,12.71L12.71,19.78C10.36,22.12 6.56,22.12 4.22,19.78C1.88,17.43 1.88,13.64 4.22,11.29M5.64,12.71C4.59,13.75 4.24,15.24 4.6,16.57L10.59,10.59L14.83,14.83L18.36,11.29C19.93,9.73 19.93,7.2 18.36,5.64C16.8,4.07 14.27,4.07 12.71,5.64L5.64,12.71Z" /></svg>
